X:1
T:Cruise Her in the Corner
M:C
L:1/8
R:Reel
B:Stephen Grier music manuscript  collection (Book 2, c. 1883, No. 108)
B:  http://grier.itma.ie/book-two#?c=0&m=0&s=0&cv=22&z=-21.5124%2C160.2592%2C2753.44%2C1107.1727
N:Stephen Grier (c. 1824-1894) was a piper and fiddler from
N:Newpark, Bohey, Gortletteragh, south Co. Leitrim.
Z:AK/Fiddler’s Companion
K:Dmix
AD (FE/D/) AD (FE/D/)|AD (FE/D/) G2 FG|AD (FE/D/) AD (FE/D/)|1 (Bc/d/) cA G2 FG:|2 Bc/d/ cA G2 FE||
DB(cA) dB(cA)|DB(cA) G2 FE|DB(cA) dB(cA)|(Bc/d/) cA G2 FE|
DB(cA) dB(cA)|DB(cA) (GA)Bc|dB(cA) (dB)(cA)|(Bc/d/) cA G2 FG||
(AB/A/) Ac (Bc/B/) BG|(AB/A/) AF G2 FG|(AB/A/) Ac (Bc/B/) Bc|dB(cA) G2 FG|
(AB/A/) Ac (Bc/B/) BG|(AB/A/) AF (GA)Bc|dB(cA) dB(cA)|(Bc/d/) cA G2 FG||

